X:1
T:Paddy Keenan's Jig
C:Paddy Keenan
S:Originally learned from Gael-Linn CEF 045 B 5
Z:Jerome Colburn <jscolbur:PRAIRIENET.ORG> irtrad-l 2001-10-5
M:6/8
K:Em
D | EGA B2 A | Bee B2 A | GBB FAA | GBG AFD |\
     EGA B2 A | Bee B2 A | GBB FAF | GED E2 ::\
A | Bef gfe | fed edB | AFF dFF | ABc def |\
     eBe gfe | fed edB | AFF dFF | FED E2 :|**
